X:1
T:La P\'erigourdine
G:Skol Al Louarn
R:P\'erigourdine
C:Traditionnel, arrangement Ronan Keryell http://kazimodal.trad.org
Q:C2=116
P:A5
M:4/4
%S:TS94
%%MIDI program 109
%%%MIDI gchord fzcfzcfzcfzc
%%MIDI chordprog 105
%%MIDI bassprog 32
%%MIDI bassvol 127
K:G
P:A
|: "G"BG Bd "D"dc/2B/2 AA | "Em"BG Bd "Bm"dc/2B/2 "Am"A2 :|
z "G"G AB "Em"G2 "Am"A>G | "C"FG "D"AB "G"G2 "Am"A2 |\
"G"GG AB "Em"G2 "Am"A>G | "C"FG "D"AB "G"G2 "Am"A2 |\
M:2/4
"G"G2 z2 ||
